lib/ui/img/fontain-logo.svg

<?xml version="1.0" encoding="UTF-8" standalone="no"?>
<!-- Created with Inkscape (http://www.inkscape.org/) -->

<svg
   xmlns:dc="http://purl.org/dc/elements/1.1/"
   xmlns:cc="http://creativecommons.org/ns#"
   xmlns:rdf="http://www.w3.org/1999/02/22-rdf-syntax-ns#"
   xmlns:svg="http://www.w3.org/2000/svg"
   xmlns="http://www.w3.org/2000/svg"
   xmlns:sodipodi="http://sodipodi.sourceforge.net/DTD/sodipodi-0.dtd"
   xmlns:inkscape="http://www.inkscape.org/namespaces/inkscape"
   width="251.57001"
   height="357.48999"
   id="svg3012"
   version="1.1"
   inkscape:version="0.48.4 r9939"
   sodipodi:docname="fontain-logo.svg">
  <defs
     id="defs3014" />
  <sodipodi:namedview
     id="base"
     pagecolor="#ffffff"
     bordercolor="#666666"
     borderopacity="1.0"
     inkscape:pageopacity="0.0"
     inkscape:pageshadow="2"
     inkscape:zoom="1.0681034"
     inkscape:cx="149.03208"
     inkscape:cy="113.62926"
     inkscape:document-units="px"
     inkscape:current-layer="layer1"
     showgrid="false"
     inkscape:window-width="1481"
     inkscape:window-height="1114"
     inkscape:window-x="380"
     inkscape:window-y="47"
     inkscape:window-maximized="0"
     fit-margin-top="0"
     fit-margin-left="0"
     fit-margin-right="0"
     fit-margin-bottom="0"
     inkscape:snap-nodes="false" />
  <metadata
     id="metadata3017">
    <rdf:RDF>
      <cc:Work
         rdf:about="">
        <dc:format>image/svg+xml</dc:format>
        <dc:type
           rdf:resource="http://purl.org/dc/dcmitype/StillImage" />
        <dc:title />
      </cc:Work>
    </rdf:RDF>
  </metadata>
  <g
     inkscape:label="Layer 1"
     inkscape:groupmode="layer"
     id="layer1"
     transform="translate(-143.85281,-310.002)">
    <path
       style="fill:#eeeeee;fill-opacity:1;fill-rule:nonzero;stroke:none"
       d="m 143.85281,309.99199 0,357.5 251.5625,0 0,-357.5 -251.5625,0 z m 166.65625,173.53125 31.34375,0 0,42.125 -31.34375,0 0,-42.125 z"
       id="rect3914"
       inkscape:connector-curvature="0" />
    <path
       style="fill:#111111;fill-opacity:1;fill-rule:nonzero;stroke:none"
       d="m 0,0 0,357.5 87.21875,-27.71875 c 1.216068,-0.54467 2.596429,-1.12484 3.6875,-1.6875 1.254952,-0.64717 2.423903,-1.30864 3.5,-2.03125 1.076097,-0.72261 2.054687,-1.49045 2.9375,-2.34375 0.882813,-0.8533 1.668651,-1.80452 2.34375,-2.84375 0.6751,-1.03923 1.23455,-2.15709 1.6875,-3.4375 0.45295,-1.28041 0.78362,-2.70442 1,-4.28125 0.21638,-1.57683 0.31588,-3.3215 0.28125,-5.25 l 0,-48.625 c 0,-3.804 0.0107,-7.7315 -0.3125,-11.46875 -0.1616,-1.86863 -0.41849,-3.69609 -0.78125,-5.4375 -0.36276,-1.74141 -0.82459,-3.397 -1.46875,-4.9375 -0.644156,-1.5405 -1.462959,-2.95284 -2.46875,-4.21875 -1.005791,-1.26591 -2.208586,-2.39488 -3.65625,-3.3125 -1.447664,-0.91762 -3.155225,-1.62934 -5.125,-2.125 -1.969775,-0.49566 -4.209125,-0.75 -6.78125,-0.75 -0.6925,0 -1.314531,-0.0982 -1.84375,-0.28125 -0.529219,-0.18309 -0.953125,-0.45312 -1.3125,-0.8125 -0.359375,-0.35938 -0.629531,-0.81491 -0.8125,-1.34375 C 77.910781,224.06491 77.8125,223.4415 77.8125,222.75 l 0,-8.5 c 0,-0.6915 0.09828,-1.315 0.28125,-1.84375 0.182969,-0.52875 0.453125,-0.9845 0.8125,-1.34375 0.359375,-0.35925 0.783281,-0.6295 1.3125,-0.8125 C 80.747969,210.067 81.37,210 82.0625,210 l 21.0625,0 -0.0625,-2.375 c 0,-4.20963 0.0109,-8.65126 0.0937,-13.21875 0.0828,-4.56749 0.2608,-9.26474 0.625,-13.9375 0.3642,-4.67276 0.90593,-9.34956 1.75,-13.875 0.42203,-2.26272 0.92078,-4.47772 1.5,-6.65625 0.57922,-2.17853 1.23878,-4.31223 2,-6.375 0.76122,-2.06277 1.62572,-4.05332 2.59375,-5.96875 0.96803,-1.91543 2.05034,-3.76348 3.25,-5.5 1.19966,-1.73652 2.51265,-3.34897 3.96875,-4.875 1.4561,-1.52603 3.0439,-2.96603 4.78125,-4.25 1.73735,-1.28397 3.61283,-2.42716 5.65625,-3.4375 2.04342,-1.01034 4.2507,-1.88862 6.625,-2.59375 2.3743,-0.70513 4.92626,-1.2254 7.65625,-1.59375 2.72999,-0.36835 5.6395,-0.5625 8.75,-0.5625 2.66544,0 5.16696,0.1164 7.5,0.375 2.33304,0.2586 4.5085,0.63852 6.53125,1.125 2.02275,0.48648 3.89044,1.0976 5.625,1.78125 1.73456,0.68365 3.34401,1.46241 4.8125,2.3125 1.46849,0.85009 2.80673,1.76419 4.03125,2.75 1.22452,0.98581 2.30984,2.03418 3.3125,3.125 1.00266,1.09082 1.91584,2.24114 2.71875,3.40625 0.80291,1.16511 1.49973,2.35383 2.125,3.5625 1.25053,2.41734 2.17115,4.87396 2.84375,7.28125 0.6726,2.40729 1.10346,4.75476 1.375,6.90625 0.27154,2.15149 0.39016,4.10006 0.4375,5.75 0.0473,1.64994 0.0312,3.00362 0.0312,3.90625 0,0.82275 -0.0973,1.55711 -0.3125,2.21875 -0.21522,0.66164 -0.56063,1.24794 -1.03125,1.71875 -0.47062,0.47081 -1.07753,0.84348 -1.84375,1.09375 -0.76622,0.25027 -1.67925,0.375 -2.78125,0.375 0,0 -15.29675,0.375 -17.59375,0.375 -0.5745,0 -1.06759,-0.20389 -1.46875,-0.5625 -0.40116,-0.35861 -0.72113,-0.86431 -0.96875,-1.4375 -0.49525,-1.14638 -0.6875,-2.57825 -0.6875,-3.71875 0,-3.088 -0.22796,-5.82786 -0.59375,-8.25 -0.36579,-2.42214 -0.87276,-4.53877 -1.53125,-6.375 -0.65849,-1.83623 -1.46566,-3.38846 -2.34375,-4.71875 -0.87809,-1.33029 -1.85041,-2.40819 -2.875,-3.3125 -1.02459,-0.90431 -2.0895,-1.62921 -3.1875,-2.1875 -1.098,-0.55829 -2.2142,-0.95777 -3.3125,-1.25 -2.19661,-0.58447 -4.3345,-0.71875 -6.09375,-0.71875 -1.026,0 -2.05534,0.1192 -3.09375,0.375 -1.03841,0.2558 -2.07762,0.63656 -3.09375,1.15625 -1.01613,0.51969 -2.00959,1.17708 -2.96875,1.96875 -0.95916,0.79167 -1.8825,1.7095 -2.75,2.78125 -0.85525,1.057 -1.56927,2.21706 -2.1875,3.46875 -0.61823,1.25169 -1.14356,2.6127 -1.5625,4.0625 -0.41894,1.4498 -0.74262,3.00489 -1,4.65625 -0.25738,1.65136 -0.42897,3.39366 -0.5625,5.25 -0.26706,3.71269 -0.34573,7.85302 -0.34375,12.40625 0.002,4.55323 0.062,9.51625 0.0312,14.9375 l 0,18.625 26.5625,0 c 0.69225,0 1.31486,0.067 1.84375,0.25 0.52889,0.183 0.98469,0.45325 1.34375,0.8125 0.35906,0.35925 0.62973,0.815 0.8125,1.34375 0.18277,0.52875 0.25,1.15225 0.25,1.84375 l 0,12.1875 c 0,0.69225 -0.0672,1.31458 -0.25,1.84375 -0.18277,0.52917 -0.45344,0.98431 -0.8125,1.34375 -0.35906,0.35944 -0.81486,0.62945 -1.34375,0.8125 -0.52889,0.18305 -1.1515,0.28125 -1.84375,0.28125 l -26.40625,0 0,77.1875 c 0,1.9285 0.0559,3.56238 0.1875,4.9375 0.13161,1.37512 0.32854,2.4881 0.625,3.4375 0.29646,0.9494 0.69297,1.72367 1.1875,2.375 0.32518,0.42828 0.76478,0.7486 1.1875,1.09375 L 251.5625,357.5 251.5625,0 0,0 z m 180.71875,173.59375 5.375,9.3125 5.375,9.3125 c 1.415,2.081 2.25,4.57525 2.25,7.28125 0,7.181 -5.82,13 -13,13 -7.182,0 -13,-5.819 -13,-13 0,-2.706 0.80375,-5.20025 2.21875,-7.28125 l 5.375,-9.3125 5.40625,-9.3125 z"
       id="rect3153"
       transform="translate(143.85281,310.00073)"
       inkscape:connector-curvature="0" />
  </g>
</svg>

<?xml version="1.0" encoding="UTF-8" standalone="no"?>
<!-- Created with Inkscape (http://www.inkscape.org/) -->

<svg
   xmlns:dc="http://purl.org/dc/elements/1.1/"
   xmlns:cc="http://creativecommons.org/ns#"
   xmlns:rdf="http://www.w3.org/1999/02/22-rdf-syntax-ns#"
   xmlns:svg="http://www.w3.org/2000/svg"
   xmlns="http://www.w3.org/2000/svg"
   xmlns:sodipodi="http://sodipodi.sourceforge.net/DTD/sodipodi-0.dtd"
   xmlns:inkscape="http://www.inkscape.org/namespaces/inkscape"
   width="251.56795"
   height="357.49127"
   id="svg3012"
   version="1.1"
   inkscape:version="0.48.4 r9939"
   sodipodi:docname="fontain-logo.svg">
  <defs
     id="defs3014" />
  <sodipodi:namedview
     id="base"
     pagecolor="#ffffff"
     bordercolor="#666666"
     borderopacity="1.0"
     inkscape:pageopacity="0.0"
     inkscape:pageshadow="2"
     inkscape:zoom="1.0681034"
     inkscape:cx="160.61744"
     inkscape:cy="113.62926"
     inkscape:document-units="px"
     inkscape:current-layer="layer1"
     showgrid="false"
     inkscape:window-width="1481"
     inkscape:window-height="1114"
     inkscape:window-x="380"
     inkscape:window-y="47"
     inkscape:window-maximized="0"
     fit-margin-top="0"
     fit-margin-left="0"
     fit-margin-right="0"
     fit-margin-bottom="0"
     inkscape:snap-nodes="false" />
  <metadata
     id="metadata3017">
    <rdf:RDF>
      <cc:Work
         rdf:about="">
        <dc:format>image/svg+xml</dc:format>
        <dc:type
           rdf:resource="http://purl.org/dc/dcmitype/StillImage" />
        <dc:title />
      </cc:Work>
    </rdf:RDF>
  </metadata>
  <g
     inkscape:label="Layer 1"
     inkscape:groupmode="layer"
     id="layer1"
     transform="translate(-143.85281,-310.00073)">
    <path
       style="fill:#111111;fill-opacity:1;fill-rule:nonzero;stroke:none"
       d="M 0 0 L 0 357.5 L 87.21875 329.78125 C 88.434818 329.23658 89.815179 328.65641 90.90625 328.09375 C 92.161202 327.44658 93.330153 326.78511 94.40625 326.0625 C 95.482347 325.33989 96.460937 324.57205 97.34375 323.71875 C 98.226563 322.86545 99.012401 321.91423 99.6875 320.875 C 100.3626 319.83577 100.92205 318.71791 101.375 317.4375 C 101.82795 316.15709 102.15862 314.73308 102.375 313.15625 C 102.59138 311.57942 102.69088 309.83475 102.65625 307.90625 L 102.65625 259.28125 C 102.65625 255.47725 102.66695 251.54975 102.34375 247.8125 C 102.18215 245.94387 101.92526 244.11641 101.5625 242.375 C 101.19974 240.63359 100.73791 238.978 100.09375 237.4375 C 99.449594 235.897 98.630791 234.48466 97.625 233.21875 C 96.619209 231.95284 95.416414 230.82387 93.96875 229.90625 C 92.521086 228.98863 90.813525 228.27691 88.84375 227.78125 C 86.873975 227.28559 84.634625 227.03125 82.0625 227.03125 C 81.37 227.03125 80.747969 226.93309 80.21875 226.75 C 79.689531 226.56691 79.265625 226.29688 78.90625 225.9375 C 78.546875 225.57812 78.276719 225.12259 78.09375 224.59375 C 77.910781 224.06491 77.8125 223.4415 77.8125 222.75 L 77.8125 214.25 C 77.8125 213.5585 77.910781 212.935 78.09375 212.40625 C 78.276719 211.8775 78.546875 211.42175 78.90625 211.0625 C 79.265625 210.70325 79.689531 210.433 80.21875 210.25 C 80.747969 210.067 81.37 210 82.0625 210 L 103.125 210 L 103.0625 207.625 C 103.0625 203.41537 103.0734 198.97374 103.15625 194.40625 C 103.2391 189.83876 103.41705 185.14151 103.78125 180.46875 C 104.14545 175.79599 104.68718 171.11919 105.53125 166.59375 C 105.95328 164.33103 106.45203 162.11603 107.03125 159.9375 C 107.61047 157.75897 108.27003 155.62527 109.03125 153.5625 C 109.79247 151.49973 110.65697 149.50918 111.625 147.59375 C 112.59303 145.67832 113.67534 143.83027 114.875 142.09375 C 116.07466 140.35723 117.38765 138.74478 118.84375 137.21875 C 120.29985 135.69272 121.88765 134.25272 123.625 132.96875 C 125.36235 131.68478 127.23783 130.54159 129.28125 129.53125 C 131.32467 128.52091 133.53195 127.64263 135.90625 126.9375 C 138.28055 126.23237 140.83251 125.7121 143.5625 125.34375 C 146.29249 124.9754 149.202 124.78125 152.3125 124.78125 C 154.97794 124.78125 157.47946 124.89765 159.8125 125.15625 C 162.14554 125.41485 164.321 125.79477 166.34375 126.28125 C 168.3665 126.76773 170.23419 127.37885 171.96875 128.0625 C 173.70331 128.74615 175.31276 129.52491 176.78125 130.375 C 178.24974 131.22509 179.58798 132.13919 180.8125 133.125 C 182.03702 134.11081 183.12234 135.15918 184.125 136.25 C 185.12766 137.34082 186.04084 138.49114 186.84375 139.65625 C 187.64666 140.82136 188.34348 142.01008 188.96875 143.21875 C 190.21928 145.63609 191.1399 148.09271 191.8125 150.5 C 192.4851 152.90729 192.91596 155.25476 193.1875 157.40625 C 193.45904 159.55774 193.57766 161.50631 193.625 163.15625 C 193.67234 164.80619 193.65625 166.15987 193.65625 167.0625 C 193.65625 167.88525 193.55897 168.61961 193.34375 169.28125 C 193.12853 169.94289 192.78312 170.52919 192.3125 171 C 191.84188 171.47081 191.23497 171.84348 190.46875 172.09375 C 189.70253 172.34402 188.7895 172.46875 187.6875 172.46875 C 187.6875 172.46875 172.39075 172.84375 170.09375 172.84375 C 169.51925 172.84375 169.02616 172.63986 168.625 172.28125 C 168.22384 171.92264 167.90387 171.41694 167.65625 170.84375 C 167.161 169.69737 166.96875 168.2655 166.96875 167.125 C 166.96875 164.037 166.74079 161.29714 166.375 158.875 C 166.00921 156.45286 165.50224 154.33623 164.84375 152.5 C 164.18526 150.66377 163.37809 149.11154 162.5 147.78125 C 161.62191 146.45096 160.64959 145.37306 159.625 144.46875 C 158.60041 143.56444 157.5355 142.83954 156.4375 142.28125 C 155.3395 141.72296 154.2233 141.32348 153.125 141.03125 C 150.92839 140.44678 148.7905 140.3125 147.03125 140.3125 C 146.00525 140.3125 144.97591 140.4317 143.9375 140.6875 C 142.89909 140.9433 141.85988 141.32406 140.84375 141.84375 C 139.82762 142.36344 138.83416 143.02083 137.875 143.8125 C 136.91584 144.60417 135.9925 145.522 135.125 146.59375 C 134.26975 147.65075 133.55573 148.81081 132.9375 150.0625 C 132.31927 151.31419 131.79394 152.6752 131.375 154.125 C 130.95606 155.5748 130.63238 157.12989 130.375 158.78125 C 130.11762 160.43261 129.94603 162.17491 129.8125 164.03125 C 129.54544 167.74394 129.46677 171.88427 129.46875 176.4375 C 129.47073 180.99073 129.53075 185.95375 129.5 191.375 L 129.5 210 L 156.0625 210 C 156.75475 210 157.37736 210.067 157.90625 210.25 C 158.43514 210.433 158.89094 210.70325 159.25 211.0625 C 159.60906 211.42175 159.87973 211.8775 160.0625 212.40625 C 160.24527 212.935 160.3125 213.5585 160.3125 214.25 L 160.3125 226.4375 C 160.3125 227.12975 160.24527 227.75208 160.0625 228.28125 C 159.87973 228.81042 159.60906 229.26556 159.25 229.625 C 158.89094 229.98444 158.43514 230.25445 157.90625 230.4375 C 157.37736 230.62055 156.75475 230.71875 156.0625 230.71875 L 129.65625 230.71875 L 129.65625 307.90625 C 129.65625 309.83475 129.71214 311.46863 129.84375 312.84375 C 129.97536 314.21887 130.17229 315.33185 130.46875 316.28125 C 130.76521 317.23065 131.16172 318.00492 131.65625 318.65625 C 131.98143 319.08453 132.42103 319.40485 132.84375 319.75 L 251.5625 357.5 L 251.5625 0 L 0 0 z M 180.71875 173.59375 L 186.09375 182.90625 L 191.46875 192.21875 C 192.88375 194.29975 193.71875 196.794 193.71875 199.5 C 193.71875 206.681 187.89875 212.5 180.71875 212.5 C 173.53675 212.5 167.71875 206.681 167.71875 199.5 C 167.71875 196.794 168.5225 194.29975 169.9375 192.21875 L 175.3125 182.90625 L 180.71875 173.59375 z "
       id="rect3153"
       transform="translate(143.85281,310.00073)" />
  </g>
</svg>
